assets/Spiral calendar/Flat/spiral_calendar_flat.svg

<svg width="32" height="32" viewBox="0 0 32 32" fill="none" xmlns="http://www.w3.org/2000/svg">
<path d="M2 9.00001L15.2666 6.15716C15.7501 6.05357 16.2499 6.05357 16.7334 6.15716L30 9.00001V24.8C30 27.6719 27.6719 30 24.8 30H7.2C4.32812 30 2 27.6719 2 24.8V9.00001Z" fill="#B4ACBC"/>
<path d="M3 10.9048V24.5C3 26.9853 5.01449 29 7.49977 29C12.8125 29 18.4572 29 23.5 29L29 23.3333V10.9048L16 9L3 10.9048Z" fill="#F3EEF8"/>
<path d="M8.2 13C8.08954 13 8 13.0895 8 13.2V15.8C8 15.9105 8.08954 16 8.2 16H10.8C10.9105 16 11 15.9105 11 15.8V13.2C11 13.0895 10.9105 13 10.8 13H8.2Z" fill="#998EA4"/>
<path d="M14.7 13C14.5895 13 14.5 13.0895 14.5 13.2V15.8C14.5 15.9105 14.5895 16 14.7 16H17.3C17.4105 16 17.5 15.9105 17.5 15.8V13.2C17.5 13.0895 17.4105 13 17.3 13H14.7Z" fill="#998EA4"/>
<path d="M21 13.2C21 13.0895 21.0895 13 21.2 13H23.8C23.9105 13 24 13.0895 24 13.2V15.8C24 15.9105 23.9105 16 23.8 16H21.2C21.0895 16 21 15.9105 21 15.8V13.2Z" fill="#998EA4"/>
<path d="M8.2 18C8.08954 18 8 18.0895 8 18.2V20.8C8 20.9105 8.08954 21 8.2 21H10.8C10.9105 21 11 20.9105 11 20.8V18.2C11 18.0895 10.9105 18 10.8 18H8.2Z" fill="#998EA4"/>
<path d="M14.5 18.2C14.5 18.0895 14.5895 18 14.7 18H17.3C17.4105 18 17.5 18.0895 17.5 18.2V20.8C17.5 20.9105 17.4105 21 17.3 21H14.7C14.5895 21 14.5 20.9105 14.5 20.8V18.2Z" fill="#998EA4"/>
<path d="M8.2 23C8.08954 23 8 23.0895 8 23.2V25.8C8 25.9105 8.08954 26 8.2 26H10.8C10.9105 26 11 25.9105 11 25.8V23.2C11 23.0895 10.9105 23 10.8 23H8.2Z" fill="#998EA4"/>
<path d="M14.5 23.2C14.5 23.0895 14.5895 23 14.7 23H17.3C17.4105 23 17.5 23.0895 17.5 23.2V25.8C17.5 25.9105 17.4105 26 17.3 26H14.7C14.5895 26 14.5 25.9105 14.5 25.8V23.2Z" fill="#998EA4"/>
<path d="M21.2 23C21.0895 23 21 23.0895 21 23.2V25.8C21 25.9105 21.0895 26 21.2 26H23.8C23.9105 26 24 25.9105 24 25.8V23.2C24 23.0895 23.9105 23 23.8 23H21.2Z" fill="#998EA4"/>
<path d="M30.0098 26.24V23L25.4998 25.5L23.0098 30H26.2498C28.3298 30 30.0098 28.31 30.0098 26.24Z" fill="#998EA4"/>
<path d="M23.0098 26.76V30L30.0098 23H26.7698C24.6998 23 23.0098 24.69 23.0098 26.76Z" fill="#E1D8EC"/>
<path d="M30 8.78525V11H2V8.78525C2 6.69131 3.6894 4.98998 5.75866 5.00005H25.036L25.7636 4.42932L26.5357 5.01153C28.4685 5.16288 30 6.79154 30 8.78525Z" fill="#0084CE"/>
<path d="M21.2 18C21.0895 18 21 18.0895 21 18.2V20.8C21 20.9105 21.0895 21 21.2 21H23.8C23.9105 21 24 20.9105 24 20.8V18.2C24 18.0895 23.9105 18 23.8 18H21.2Z" fill="#0084CE"/>
<path d="M11.5205 5C11.507 5.08803 11.5 5.1782 11.5 5.27C11.5 6.02203 11.969 6.66451 12.6305 6.92093C12.9581 7.04793 13.25 7.32269 13.25 7.67406C13.25 8.15143 12.8546 8.54901 12.3946 8.42151C11.0137 8.03877 10 6.77277 10 5.27C10 5.16743 10.0047 5.06597 10.014 4.96581C9.86975 4.13321 9.14382 3.5 8.27 3.5C7.29246 3.5 6.5 4.29246 6.5 5.27C6.5 6.02203 6.969 6.66451 7.63046 6.92093C7.95807 7.04793 8.25 7.32269 8.25 7.67406C8.25 8.15143 7.85465 8.54901 7.39462 8.42151C6.01371 8.03877 5 6.77277 5 5.27C5 3.46403 6.46403 2 8.27 2C9.2728 2 10.1702 2.45139 10.77 3.16207C11.3698 2.45139 12.2672 2 13.27 2C14.2728 2 15.1702 2.45139 15.77 3.16207C16.3698 2.45139 17.2672 2 18.27 2C19.2728 2 20.1702 2.45139 20.77 3.16207C21.3698 2.45139 22.2672 2 23.27 2C24.9851 2 26.3917 3.32034 26.529 5H25.0195C24.8895 4.15061 24.1557 3.5 23.27 3.5C22.3962 3.5 21.6702 4.13321 21.526 4.96582C21.5271 4.9772 21.5281 4.98859 21.529 5H21.5205C21.507 5.08803 21.5 5.1782 21.5 5.27C21.5 6.02203 21.969 6.66451 22.6305 6.92093C22.9581 7.04793 23.25 7.32269 23.25 7.67406C23.25 8.15143 22.8546 8.54901 22.3946 8.42151C21.0137 8.03877 20 6.77277 20 5.27C20 5.16743 20.0047 5.06597 20.014 4.96581C19.8698 4.13321 19.1438 3.5 18.27 3.5C17.3962 3.5 16.6702 4.13321 16.526 4.96582L16.529 5H16.5205C16.507 5.08803 16.5 5.1782 16.5 5.27C16.5 6.02203 16.969 6.66451 17.6305 6.92093C17.9581 7.04793 18.25 7.32269 18.25 7.67406C18.25 8.15143 17.8546 8.54901 17.3946 8.42151C16.0137 8.03877 15 6.77277 15 5.27C15 5.16743 15.0047 5.06597 15.014 4.96581C14.8698 4.13321 14.1438 3.5 13.27 3.5C12.3962 3.5 11.6702 4.13321 11.526 4.96581L11.529 5H11.5205Z" fill="#CDC4D6"/>
</svg>

<svg xmlns="http://www.w3.org/2000/svg" width="32" height="32" fill="none"><path fill="#B4ACBC" d="m2 9 13.267-2.843a3.5 3.5 0 0 1 1.466 0L30 9v15.8a5.2 5.2 0 0 1-5.2 5.2H7.2A5.2 5.2 0 0 1 2 24.8V9Z"/><path fill="#F3EEF8" d="M3 10.905V24.5A4.5 4.5 0 0 0 7.5 29h16l5.5-5.667V10.905L16 9 3 10.905Z"/><path fill="#998EA4" d="M8.2 13a.2.2 0 0 0-.2.2v2.6c0 .11.09.2.2.2h2.6a.2.2 0 0 0 .2-.2v-2.6a.2.2 0 0 0-.2-.2H8.2ZM14.7 13a.2.2 0 0 0-.2.2v2.6c0 .11.09.2.2.2h2.6a.2.2 0 0 0 .2-.2v-2.6a.2.2 0 0 0-.2-.2h-2.6ZM21 13.2c0-.11.09-.2.2-.2h2.6c.11 0 .2.09.2.2v2.6a.2.2 0 0 1-.2.2h-2.6a.2.2 0 0 1-.2-.2v-2.6ZM8.2 18a.2.2 0 0 0-.2.2v2.6c0 .11.09.2.2.2h2.6a.2.2 0 0 0 .2-.2v-2.6a.2.2 0 0 0-.2-.2H8.2ZM14.5 18.2c0-.11.09-.2.2-.2h2.6c.11 0 .2.09.2.2v2.6a.2.2 0 0 1-.2.2h-2.6a.2.2 0 0 1-.2-.2v-2.6ZM8.2 23a.2.2 0 0 0-.2.2v2.6c0 .11.09.2.2.2h2.6a.2.2 0 0 0 .2-.2v-2.6a.2.2 0 0 0-.2-.2H8.2ZM14.5 23.2c0-.11.09-.2.2-.2h2.6c.11 0 .2.09.2.2v2.6a.2.2 0 0 1-.2.2h-2.6a.2.2 0 0 1-.2-.2v-2.6ZM21.2 23a.2.2 0 0 0-.2.2v2.6c0 .11.09.2.2.2h2.6a.2.2 0 0 0 .2-.2v-2.6a.2.2 0 0 0-.2-.2h-2.6ZM30.01 26.24V23l-4.51 2.5-2.49 4.5h3.24c2.08 0 3.76-1.69 3.76-3.76Z"/><path fill="#E1D8EC" d="M23.01 26.76V30l7-7h-3.24c-2.07 0-3.76 1.69-3.76 3.76Z"/><path fill="#0084CE" d="M30 8.785V11H2V8.785C2 6.691 3.69 4.99 5.759 5h19.277l.728-.57.772.582C28.468 5.162 30 6.792 30 8.785ZM21.2 18a.2.2 0 0 0-.2.2v2.6c0 .11.09.2.2.2h2.6a.2.2 0 0 0 .2-.2v-2.6a.2.2 0 0 0-.2-.2h-2.6Z"/><path fill="#CDC4D6" d="M11.52 5a1.77 1.77 0 0 0 1.11 1.92c.328.128.62.403.62.754 0 .477-.395.875-.855.748a3.271 3.271 0 0 1-2.381-3.456A1.77 1.77 0 1 0 7.63 6.92c.328.127.62.402.62.753 0 .477-.395.875-.855.748A3.271 3.271 0 0 1 8.27 2c1.003 0 1.9.451 2.5 1.162A3.263 3.263 0 0 1 13.27 2c1.003 0 1.9.451 2.5 1.162A3.263 3.263 0 0 1 18.27 2c1.003 0 1.9.451 2.5 1.162A3.27 3.27 0 0 1 26.529 5h-1.51a1.77 1.77 0 0 0-3.493-.034l.003.034h-.009a1.77 1.77 0 0 0 1.11 1.92c.328.128.62.403.62.754 0 .477-.395.875-.855.748a3.271 3.271 0 0 1-2.381-3.456 1.77 1.77 0 0 0-3.488 0l.003.034h-.009a1.77 1.77 0 0 0 1.11 1.92c.328.128.62.403.62.754 0 .477-.395.875-.855.748a3.271 3.271 0 0 1-2.381-3.456 1.77 1.77 0 0 0-3.488 0l.003.034h-.008Z"/></svg>
